images/feedback-page/Square_Check.svg

<svg width="24" height="24" viewBox="0 0 24 24" fill="none" xmlns="http://www.w3.org/2000/svg">
<path d="M16.0003 9L10.667 15L8 12M21 6.19995V17.8C21 18.9201 21.0002 19.4802 20.7822 19.908C20.5905 20.2844 20.2841 20.5902 19.9078 20.782C19.48 21 18.9203 21 17.8002 21H6.2002C5.08009 21 4.51962 21 4.0918 20.782C3.71547 20.5902 3.40973 20.2844 3.21799 19.908C3 19.4802 3 18.9201 3 17.8V6.19995C3 5.07985 3 4.51986 3.21799 4.09204C3.40973 3.71572 3.71547 3.40973 4.0918 3.21799C4.51962 3 5.08009 3 6.2002 3H17.8002C18.9203 3 19.48 3 19.9078 3.21799C20.2841 3.40973 20.5905 3.71572 20.7822 4.09204C21.0002 4.51986 21 5.07985 21 6.19995Z" stroke="rgba(102, 221, 141, 1)" stroke-width="2" stroke-linecap="round" stroke-linejoin="round"/>
</svg>

<svg xmlns="http://www.w3.org/2000/svg" width="24" height="24" fill="none"><path stroke="rgba(102, 221, 141, 1)" stroke-linecap="round" stroke-linejoin="round" stroke-width="2" d="m16 9-5.333 6L8 12m13-5.8v11.6c0 1.12 0 1.68-.218 2.108a2 2 0 0 1-.874.874C19.48 21 18.92 21 17.8 21H6.2c-1.12 0-1.68 0-2.108-.218a2 2 0 0 1-.874-.874C3 19.48 3 18.92 3 17.8V6.2c0-1.12 0-1.68.218-2.108a2 2 0 0 1 .874-.874C4.52 3 5.08 3 6.2 3h11.6c1.12 0 1.68 0 2.108.218a2 2 0 0 1 .874.874C21 4.52 21 5.08 21 6.2Z"/></svg>
